X: 1
T: Poul Pejsen
R: waltz
M: 3/4
L: 1/8
K: Dmaj
|:A>d c/d/e/c/ dA|f>f e/f/g/e/ fd|aa/f/ gg/e/ ff/d/|e/f/e/c/ dA FA|
A>d c/d/e/c/ dA|f>f e/f/g/e/ fd|a>f g>e f>d|e/f/e/c/ dd d2:|
|:a>g ff f2|f/a/g/f/ ee e2|f>e dd d2|e>d cB BA|
A>d c/d/e/c/ dA|f>f e/f/g/e/ fd|aa/f/ gg/e/ ff/d/|e/f/e/c/ dd d2:|

